gtk-icons/Papirus-GTK/48x48/apps/pdfeditor.svg

<?xml version="1.0" encoding="UTF-8" standalone="no"?>
<!-- Created with Inkscape (http://www.inkscape.org/) -->
<svg id="svg2817" xmlns:rdf="http://www.w3.org/1999/02/22-rdf-syntax-ns#" xmlns="http://www.w3.org/2000/svg" height="48" width="48" version="1.0" xmlns:cc="http://creativecommons.org/ns#" xmlns:dc="http://purl.org/dc/elements/1.1/">
 <metadata id="metadata57">
  <rdf:RDF>
   <cc:Work rdf:about="">
    <dc:format>image/svg+xml</dc:format>
    <dc:type rdf:resource="http://purl.org/dc/dcmitype/StillImage"/>
    <dc:title/>
   </cc:Work>
  </rdf:RDF>
 </metadata>
 <path id="path4429" opacity=".2" d="m41 5.6v28.8c0 0.8864-0.7136 1.6-1.6 1.6h-24.8c-0.8864 0-1.6-0.7136-1.6-1.6v-28.8c0-0.8864 0.714-1.6 1.6-1.6h24.8c0.886 0 1.6 0.7136 1.6 1.6z"/>
 <path id="path4431" d="m41 4.6v28.8c0 0.8864-0.7136 1.6-1.6 1.6h-24.8c-0.8864 0-1.6-0.7136-1.6-1.6v-28.8c0-0.8864 0.714-1.6 1.6-1.6h24.8c0.886 0 1.6 0.7136 1.6 1.6z" fill="#b0322c"/>
 <path id="path4435" d="m33 12.6v28.8c0 0.886-0.714 1.6-1.6 1.6h-24.8c-0.8864 0-1.6-0.714-1.6-1.6v-28.8c0-0.8864 0.7136-1.6 1.6-1.6h24.8c0.8864 0 1.6 0.7136 1.6 1.6z" fill="#c03630"/>
 <path id="path4217" opacity=".3" d="m5 40.4v1c0 0.887 0.7132 1.6 1.5996 1.6h24.8c0.887 0 1.6-0.713 1.6-1.6v-1c0 0.887-0.713 1.6-1.6 1.6h-24.8c-0.8868 0-1.6-0.713-1.6-1.6z"/>
 <path id="path4437" opacity=".2" d="m6.5996 11c-0.8864 0-1.5996 0.713-1.5996 1.6v1c0-0.887 0.7132-1.6 1.5996-1.6h24.801c0.886 0 1.599 0.713 1.599 1.6v-1c0-0.887-0.713-1.6-1.6-1.6h-24.8z" fill="#fff"/>
 <path id="path4439" opacity=".2" d="m14.6 3.0004c-0.887 0-1.6 0.7132-1.6 1.5996v1c0-0.8864 0.71321-1.5996 1.5996-1.5996h24.801c0.886 0 1.599 0.7132 1.599 1.5996v-1c0-0.8864-0.713-1.5996-1.6-1.5996h-24.801z" fill="#fff"/>
 <path id="path4471" style="color:#bebebe" d="m17.781 17.225c-0.46126 0-0.89261 0.22577-0.99696 0.59841-0.38752 1.4286 0.0462 3.6379 0.76956 6.3906l-0.21821 0.53294c-0.55387 1.3501-1.2462 2.6947-1.855 3.8879-2.5135 4.918-4.4689 7.5715-5.7727 7.7574l-0.005-0.054c-0.0283-0.61346 1.1038-2.1951 2.6382-3.4526 0.16005-0.12944 0.84304-0.79021 0.84304-0.79021s-0.92191 0.48667-1.129 0.61218c-1.9228 1.1477-2.8796 2.2976-3.0356 3.0609-0.0463 0.22672-0.0166 0.5057 0.18375 0.62024l0.4916 0.24694c1.3384 0.66995 2.9841-1.0916 5.172-4.9262 2.2264-0.73036 5.0043-1.418 7.5335-1.7906 2.264 1.2936 4.861 1.9095 5.8588 1.6436 0.18987-0.0502 0.3896-0.19924 0.4916-0.33652 0.08-0.12631 0.19183-0.63172 0.19183-0.63172s-0.18773 0.25547-0.3423 0.33078c-0.63152 0.29811-2.6253-0.19924-4.6712-1.2002 1.769-0.18828 3.2427-0.19554 4.0303 0.0562 1.0003 0.3193 1.0011 0.64659 0.98778 0.71326 0.0135-0.0549 0.0583-0.27418 0.0528-0.36753-0.0227-0.24006-0.0967-0.45443-0.27795-0.63172-0.37027-0.36479-1.2845-0.54862-2.5303-0.56509-0.939-0.0102-2.065 0.072-3.2872 0.24694-0.56012-0.32164-1.1512-0.67522-1.6195-1.113-1.1877-1.1093-2.1832-2.6494-2.8014-4.376 0.0422-0.16553 0.0826-0.32727 0.11944-0.49045 0.17183-0.77271 0.29517-3.3274 0.29517-3.3274s-0.48934 1.9192-0.56622 2.2087c-0.0494 0.18357-0.11086 0.3795-0.18147 0.58347-0.375-1.3179-0.56509-2.5952-0.56509-3.564 0-0.27379 0.0235-0.80656 0.10105-1.2278 0.0378-0.30045 0.1466-0.45647 0.2596-0.53179 0.22357 0.0542 0.47383 0.39708 0.73509 0.97054 0.22435 0.4958 0.21017 1.07 0.21017 1.4254 0 0 0.24061-0.87999 0.18492-1.4001-0.036-0.313-0.333-1.116-0.965-1.107h-0.0517l-0.28139-0.003zm0.21478 7.9791c0.65351 1.314 1.5548 2.5619 2.7371 3.5629 0.26357 0.22279 0.544 0.43475 0.83269 0.634-2.1471 0.39931-4.4021 0.96102-6.4975 1.8389 0.37891-0.67309 0.78861-1.4064 1.2083-2.1972 0.81274-1.5368 1.3052-2.7222 1.7194-3.8385z" stroke="#fff" stroke-width=".5" fill="#fff"/>
 <circle id="path4058-7" style="enable-background:new" cy="34" cx="31" r="12" fill="#30a7c0"/>
 <g id="g6476-7" style="color:#bebebe" transform="translate(-17,-492)" fill="none">
  <rect id="rect6478-8" style="color:#bebebe;enable-background:new" height="16" width="16" y="518" x="40" fill="none"/>
 </g>
 <path id="path4-0" style="enable-background:new" d="m25 37.327v2.673h2.6728l6.7507-6.7507-2.6728-2.6728zm11.788-6.4337c0.28271-0.28271 0.28271-0.72818 0-1.0109l-1.6705-1.6705c-0.28271-0.28271-0.72818-0.28271-1.0109 0l-1.3964 1.405 2.6728 2.6728z" fill="#fff"/>
 <path id="circle4222" opacity=".3" style="enable-background:new" d="m42.98 33.406a12 12 0 0 1 -11.98 11.594 12 12 0 0 1 -11.98 -11.406 12 12 0 0 0 -0.02 0.406 12 12 0 0 0 12 12 12 12 0 0 0 12 -12 12 12 0 0 0 -0.02 -0.594z"/>
</svg>

<?xml version="1.0" encoding="UTF-8" standalone="no"?>
<!-- Created with Inkscape (http://www.inkscape.org/) -->

<svg
   xmlns:dc="http://purl.org/dc/elements/1.1/"
   xmlns:cc="http://creativecommons.org/ns#"
   xmlns:rdf="http://www.w3.org/1999/02/22-rdf-syntax-ns#"
   xmlns:svg="http://www.w3.org/2000/svg"
   xmlns="http://www.w3.org/2000/svg"
   xmlns:sodipodi="http://sodipodi.sourceforge.net/DTD/sodipodi-0.dtd"
   xmlns:inkscape="http://www.inkscape.org/namespaces/inkscape"
   id="svg2817"
   height="48"
   width="48"
   version="1.0"
   inkscape:version="0.91 r13725"
   sodipodi:docname="pdfeditor.svg">
  <sodipodi:namedview
     pagecolor="#ffffff"
     bordercolor="#666666"
     borderopacity="1"
     objecttolerance="10"
     gridtolerance="10"
     guidetolerance="10"
     inkscape:pageopacity="0"
     inkscape:pageshadow="2"
     inkscape:window-width="1548"
     inkscape:window-height="846"
     id="namedview15"
     showgrid="false"
     inkscape:zoom="1"
     inkscape:cx="10.449753"
     inkscape:cy="24"
     inkscape:window-x="52"
     inkscape:window-y="30"
     inkscape:window-maximized="1"
     inkscape:current-layer="svg2817" />
  <metadata
     id="metadata57">
    <rdf:RDF>
      <cc:Work
         rdf:about="">
        <dc:format>image/svg+xml</dc:format>
        <dc:type
           rdf:resource="http://purl.org/dc/dcmitype/StillImage" />
        <dc:title></dc:title>
      </cc:Work>
    </rdf:RDF>
  </metadata>
  <defs
     id="defs2819" />
  <path
     sodipodi:nodetypes="sssssssss"
     inkscape:connector-curvature="0"
     id="path4429"
     d="m 41,5.6 0,28.79991 c 0,0.8864 -0.7136,1.6 -1.6,1.6 l -24.8,0 c -0.8864,0 -1.6,-0.7136 -1.6,-1.6 L 13,5.6 C 13,4.7136 13.7136,4 14.6,4 L 39.4,4 C 40.2864,4 41,4.7136 41,5.6 Z"
     style="opacity:0.2;fill:#000000;fill-opacity:1;stroke:none" />
  <path
     sodipodi:nodetypes="sssssssss"
     inkscape:connector-curvature="0"
     id="path4431"
     d="m 41,4.6 0,28.79991 c 0,0.8864 -0.7136,1.6 -1.6,1.6 l -24.8,0 c -0.8864,0 -1.6,-0.7136 -1.6,-1.6 L 13,4.6 C 13,3.7136 13.7136,3 14.6,3 L 39.4,3 C 40.2864,3 41,3.7136 41,4.6 Z"
     style="fill:#b0322c;fill-opacity:1;stroke:none" />
  <path
     sodipodi:nodetypes="sssssssss"
     inkscape:connector-curvature="0"
     id="path4435"
     d="M 33,12.60009 33,41.4 C 33,42.2864 32.2864,43 31.4,43 L 6.6,43 C 5.7136,43 5,42.2864 5,41.4 L 5,12.60009 c 0,-0.8864 0.7136,-1.6 1.6,-1.6 l 24.8,0 c 0.8864,0 1.6,0.7136 1.6,1.6 z"
     style="fill:#c03630;fill-opacity:1;stroke:none" />
  <path
     style="fill:#000000;fill-opacity:1;stroke:none;opacity:0.3"
     d="M 5 40.400391 L 5 41.400391 C 5 42.286791 5.7132094 43 6.5996094 43 L 31.400391 43 C 32.286791 43 33 42.286791 33 41.400391 L 33 40.400391 C 33 41.286791 32.286791 42 31.400391 42 L 6.5996094 42 C 5.7132094 42 5 41.286791 5 40.400391 z "
     id="path4217" />
  <path
     inkscape:connector-curvature="0"
     id="path4437"
     d="M 6.59961,11 C 5.71321,11 5,11.71321 5,12.59961 l 0,1 C 5,12.71321 5.71321,12 6.59961,12 l 24.80078,0 C 32.28679,12 33,12.71321 33,13.59961 l 0,-1 C 33,11.71321 32.28679,11 31.40039,11 L 6.59961,11 Z"
     style="opacity:0.2;fill:#ffffff;fill-opacity:1;stroke:none" />
  <path
     inkscape:connector-curvature="0"
     style="opacity:0.2;fill:#ffffff;fill-opacity:1;stroke:none"
     d="M 14.59961,3.00039 C 13.71321,3.00039 13,3.7136 13,4.6 l 0,1 c 0,-0.8864 0.71321,-1.59961 1.59961,-1.59961 l 24.80078,0 C 40.28679,4.00039 41,4.7136 41,5.6 l 0,-1 C 41,3.7136 40.28679,3.00039 39.40039,3.00039 l -24.80078,0 z"
     id="path4439" />
  <path
     inkscape:connector-curvature="0"
     style="color:#bebebe;display:inline;overflow:visible;visibility:visible;fill:#ffffff;fill-opacity:1;fill-rule:nonzero;stroke:#ffffff;stroke-width:0.5;stroke-miterlimit:4;stroke-dasharray:none;stroke-opacity:1;marker:none;enable-background:accumulate"
     d="m 17.78075,17.22494 c -0.46126,0 -0.89261,0.22577 -0.99696,0.59841 -0.38752,1.42855 0.0462,3.63786 0.76956,6.39063 l -0.21821,0.53294 c -0.55387,1.35011 -1.24618,2.6947 -1.85496,3.8879 -2.51351,4.91796 -4.4689,7.57151 -5.77272,7.75744 l -0.005,-0.054 c -0.0283,-0.61346 1.10378,-2.19506 2.63825,-3.45259 0.16005,-0.12944 0.84304,-0.79021 0.84304,-0.79021 0,0 -0.92191,0.48667 -1.12904,0.61218 -1.92277,1.14771 -2.87955,2.29763 -3.03565,3.06093 -0.0463,0.22672 -0.0166,0.5057 0.18375,0.62024 l 0.4916,0.24694 c 1.33835,0.66995 2.98408,-1.09163 5.172,-4.92621 2.22638,-0.73036 5.00429,-1.41799 7.53346,-1.79062 2.26403,1.29363 4.86099,1.90954 5.85885,1.6436 0.18987,-0.0502 0.3896,-0.19924 0.4916,-0.33652 0.08,-0.12631 0.19183,-0.63172 0.19183,-0.63172 0,0 -0.18773,0.25547 -0.3423,0.33078 -0.63152,0.29811 -2.6253,-0.19924 -4.6712,-1.20025 1.76899,-0.18828 3.24268,-0.19554 4.03029,0.0562 1.00026,0.3193 1.00113,0.64659 0.98778,0.71326 0.0135,-0.0549 0.0583,-0.27418 0.0528,-0.36753 -0.0227,-0.24006 -0.0967,-0.45443 -0.27795,-0.63172 -0.37027,-0.36479 -1.28452,-0.54862 -2.5303,-0.56509 -0.939,-0.0102 -2.06495,0.072 -3.28717,0.24694 -0.56012,-0.32164 -1.15116,-0.67522 -1.61951,-1.11296 -1.18769,-1.10927 -2.18318,-2.6494 -2.80135,-4.37605 0.0422,-0.16553 0.0826,-0.32727 0.11944,-0.49045 0.17183,-0.77271 0.29517,-3.3274 0.29517,-3.3274 0,0 -0.48934,1.91922 -0.56622,2.2087 -0.0494,0.18357 -0.11086,0.3795 -0.18147,0.58347 -0.375,-1.31794 -0.56509,-2.59516 -0.56509,-3.564 0,-0.27379 0.0235,-0.80656 0.10105,-1.22783 0.0378,-0.30045 0.1466,-0.45647 0.2596,-0.53179 0.22357,0.0542 0.47383,0.39708 0.73509,0.97054 0.22435,0.4958 0.21017,1.07 0.21017,1.42538 0,0 0.24061,-0.87999 0.18492,-1.4001 C 19.042,18.02215 18.74494,17.2189 18.11342,17.2283 l -0.0517,0 -0.28139,-0.003 z m 0.21478,7.97911 c 0.65351,1.31402 1.55482,2.56186 2.73708,3.56287 0.26357,0.22279 0.544,0.43475 0.83269,0.634 -2.14712,0.39931 -4.40208,0.96102 -6.49746,1.83886 0.37891,-0.67309 0.78861,-1.40645 1.2083,-2.19721 0.81274,-1.53682 1.30521,-2.72219 1.71939,-3.83852 z"
     id="path4471"
     clip-path="none" />
  <circle
     r="12"
     cy="34"
     cx="31"
     style="display:inline;fill:#30a7c0;fill-opacity:1;stroke:none;enable-background:new"
     id="path4058-7" />
  <g
     transform="translate(-17,-492)"
     inkscape:label="dialog-error"
     id="g6476-7"
     style="color:#bebebe;display:inline;visibility:visible;fill:none;stroke:none;stroke-width:1.78124988;marker:none">
    <rect
       style="color:#bebebe;display:inline;overflow:visible;visibility:visible;fill:none;stroke:none;stroke-width:1;marker:none;enable-background:new"
       id="rect6478-8"
       y="518"
       x="40"
       height="16"
       width="16" />
  </g>
  <path
     inkscape:connector-curvature="0"
     d="M 25,37.32715 25,40 l 2.67285,0 6.75067,-6.75067 -2.67285,-2.67285 z m 11.78797,-6.4337 c 0.28271,-0.28271 0.28271,-0.72818 0,-1.01089 l -1.67053,-1.67053 c -0.28271,-0.28271 -0.72818,-0.28271 -1.01089,0 l -1.39639,1.40496 2.67285,2.67285 z"
     id="path4-0"
     sodipodi:nodetypes="cccccccsscccc"
     style="display:inline;fill:#ffffff;fill-opacity:1;stroke:none;enable-background:new" />
  <path
     style="display:inline;fill:#000000;fill-opacity:1;stroke:none;enable-background:new;opacity:0.3"
     d="M 42.980469 33.40625 A 12 12 0 0 1 31 45 A 12 12 0 0 1 19.019531 33.59375 A 12 12 0 0 0 19 34 A 12 12 0 0 0 31 46 A 12 12 0 0 0 43 34 A 12 12 0 0 0 42.980469 33.40625 z "
     id="circle4222" />
</svg>
